elusive/wheelchair.svg

<?xml version="1.0" encoding="UTF-8" standalone="no"?>
<!-- Generator: IcoMoon.io -->

<svg
   xmlns:dc="http://purl.org/dc/elements/1.1/"
   xmlns:cc="http://creativecommons.org/ns#"
   xmlns:rdf="http://www.w3.org/1999/02/22-rdf-syntax-ns#"
   xmlns:svg="http://www.w3.org/2000/svg"
   xmlns="http://www.w3.org/2000/svg"
   xmlns:sodipodi="http://sodipodi.sourceforge.net/DTD/sodipodi-0.dtd"
   xmlns:inkscape="http://www.inkscape.org/namespaces/inkscape"
   id="svg2"
   version="1.1"
   data-tags="remove-circle, cancel, close, remove, delete"
   height="1200"
   width="1200"
   data-du=""
   viewBox="0 0 1200 1200"
   inkscape:version="0.48.4 r9939"
   sodipodi:docname="wheelchair.svg">
  <defs
     id="defs32">
    <pattern
       id="pattern13199"
       width="811.3138"
       patternUnits="userSpaceOnUse"
       patternTransform="translate(-1692.9959,113.8855)"
       height="483.7205">
      <path
         id="path13201"
         filter="url(#filter3767)"
         d="M241.8603,83.1823H569.4535A158.678,158.678 0 0 1 728.1315,241.8603V241.8603A158.678,158.678 0 0 1 569.4535,400.5382H241.8603A158.678,158.678 0 0 1 83.1823,241.8603V241.8603A158.678,158.678 0 0 1 241.8603,83.1823" />
    </pattern>
    <mask
       id="mask13195"
       maskUnits="userSpaceOnUse">
      <path
         id="path13197"
         d="m -957.1864,582.2458 40.9492,-299.4407 -144.6017,-8.9576 -10.2373,67.822 -12.7966,11.5169 -8.9576,216.2627 -65.2627,-21.7542 14.0763,-270.0085 -74.2204,-6.3983 -11.5169,28.1525 -14.0763,225.2203 -42.2288,-8.9576 2.5593,-250.8136 -6.3983,0 -7.678,-70.3814 -33.2712,1.2797 -1.2796,29.4322 -7.678,17.9153 -2.5593,189.3898 -26.8729,33.2712 2.5593,88.2966 40.9492,19.1949 34.5508,-46.0678 284.0848,76.7797 49.9068,-21.7542"
         inkscape:connector-curvature="0"
         style="fill:#ffffff;stroke:#000000" />
    </mask>
    <filter
       id="filter13191"
       y="-0.26210001"
       x="-0.12899999"
       width="1.2579"
       height="1.5242"
       color-interpolation-filters="sRGB">
      <feGaussianBlur
         id="feGaussianBlur13193"
         stdDeviation="34.659" />
    </filter>
    <inkscape:path-effect
       id="path-effect13189" />
    <inkscape:path-effect
       id="path-effect21802" />
    <pattern
       id="pattern16"
       width="811.3138"
       patternUnits="userSpaceOnUse"
       patternTransform="translate(-1692.9959,113.8855)"
       height="483.7205">
      <path
         id="path18"
         filter="url(#filter3767)"
         d="M241.8603,83.1823H569.4535A158.678,158.678 0 0 1 728.1315,241.8603V241.8603A158.678,158.678 0 0 1 569.4535,400.5382H241.8603A158.678,158.678 0 0 1 83.1823,241.8603V241.8603A158.678,158.678 0 0 1 241.8603,83.1823" />
    </pattern>
    <mask
       id="mask12"
       maskUnits="userSpaceOnUse">
      <path
         id="path14"
         d="m -957.1864,582.2458 40.9492,-299.4407 -144.6017,-8.9576 -10.2373,67.822 -12.7966,11.5169 -8.9576,216.2627 -65.2627,-21.7542 14.0763,-270.0085 -74.2204,-6.3983 -11.5169,28.1525 -14.0763,225.2203 -42.2288,-8.9576 2.5593,-250.8136 -6.3983,0 -7.678,-70.3814 -33.2712,1.2797 -1.2796,29.4322 -7.678,17.9153 -2.5593,189.3898 -26.8729,33.2712 2.5593,88.2966 40.9492,19.1949 34.5508,-46.0678 284.0848,76.7797 49.9068,-21.7542"
         inkscape:connector-curvature="0"
         style="fill:#ffffff;stroke:#000000" />
    </mask>
    <filter
       id="filter8"
       y="-0.26210001"
       x="-0.12899999"
       width="1.2579"
       height="1.5242"
       color-interpolation-filters="sRGB">
      <feGaussianBlur
         id="feGaussianBlur10"
         stdDeviation="34.659" />
    </filter>
    <inkscape:path-effect
       id="path-effect6" />
  </defs>
  <sodipodi:namedview
     pagecolor="#ffffff"
     bordercolor="#666666"
     borderopacity="1"
     objecttolerance="10"
     gridtolerance="10"
     guidetolerance="10"
     inkscape:pageopacity="0"
     inkscape:pageshadow="2"
     inkscape:window-width="1535"
     inkscape:window-height="876"
     id="namedview30"
     showgrid="false"
     inkscape:zoom="0.52678571"
     inkscape:cx="593.76445"
     inkscape:cy="629.17655"
     inkscape:window-x="65"
     inkscape:window-y="24"
     inkscape:window-maximized="1"
     inkscape:current-layer="svg2" />
  <metadata
     id="metadata62">
    <rdf:RDF>
      <cc:Work
         rdf:about="">
        <dc:format>image/svg+xml</dc:format>
        <dc:type
           rdf:resource="http://purl.org/dc/dcmitype/StillImage" />
        <dc:title></dc:title>
      </cc:Work>
    </rdf:RDF>
  </metadata>
  <g
     id="g23079"
     transform="matrix(0.47671425,0,0,-0.47671425,393.23257,1049.5274)" />
  <g
     id="g25109"
     transform="matrix(1.4583323,0,0,1.4583323,-270.38025,627.28272)" />
  <path
     style="fill:currentColor"
     d="M 476.71875 0 C 411.11731 0.47089551 359.14113 50.855622 356.34375 119.09375 C 356.82029 185.4955 407.73695 236.96206 476.71875 239.5 C 538.14441 238.66844 592.70811 188.02549 595.8125 119.09375 C 595.3467 52.961964 544.72828 3.0148542 476.71875 0 z M 510 266.375 C 482.67919 266.375 459.62754 275.55021 440.84375 293.90625 C 425.58313 309.22424 408.49716 343.00732 413.96875 370.125 L 412.6875 370.125 L 483.125 709.5 C 490.38929 748.37347 522.38309 773.43877 565.09375 776.09375 C 663.21033 775.82405 769.60073 773.59688 869.875 774.8125 L 1038.9375 1069.375 C 1057.9604 1109.5228 1106.6714 1117.9779 1142.0312 1088.5938 C 1158.9959 1071.7593 1165.857 1043.1191 1154.1875 1018.1562 L 958.25 677.46875 C 944.1324 648.26098 916.28016 631.80653 881.40625 630.09375 L 663.6875 630.09375 L 638.09375 504.59375 L 808.40625 504.59375 C 845.22589 507.31635 871.74903 479.21877 864.125 440.5625 C 858.52303 421.67512 838.95086 404.28275 816.09375 403.40625 L 616.3125 403.40625 C 606.24352 351.94265 607.8468 320.83315 568.28125 285.59375 C 551.63236 272.78692 532.19808 266.375 510 266.375 z M 326.28125 411.625 C 321.02218 411.69602 315.61815 412.35514 310.21875 413.65625 C 234.77423 443.01309 166.90144 493.45701 114.28125 563.5 C 67.911306 628.8872 41.986596 707.59449 40 794.03125 C 40.772124 896.47475 84.761177 1001.6001 163.59375 1080.9062 C 240.00198 1153.6802 346.05814 1197.6051 460.0625 1200 C 543.21494 1199.5416 626.33687 1174.9848 702.125 1126.375 C 770.19534 1080.138 823.53878 1013.7869 855.78125 931.0625 C 861.7582 916.54816 866.88772 900.30457 871.15625 882.375 C 877.40584 854.18897 861.58593 831.29135 831.46875 822.1875 C 804.07481 816.11681 779.57643 831.23192 770 860.625 C 767.43863 873.43183 763.59147 885.797 758.46875 897.75 C 736.71954 955.25708 696.23617 1005.0336 642.5625 1043.75 C 590.37799 1079.2375 527.87851 1098.5623 460.0625 1100.0938 C 379.4125 1099.5192 301.73071 1068.7775 236.59375 1010.4688 C 180.62432 956.20527 145.6116 878.55646 143.75 794.03125 C 144.10782 733.77639 163.51206 674.31597 200.09375 620.5 C 235.96889 570.69346 286.18936 532.22716 347.375 507.15625 C 373.15798 498.70029 387.04778 472.0058 378.09375 443.125 C 369.44518 422.36458 349.07057 411.31725 326.28125 411.625 z "
     id="path3003" />
</svg>

<?xml version="1.0" encoding="utf-8"?>
<!-- Generator: Adobe Illustrator 13.0.0, SVG Export Plug-In . SVG Version: 6.00 Build 14948)  -->
<!DOCTYPE svg PUBLIC "-//W3C//DTD SVG 1.1//EN" "http://www.w3.org/Graphics/SVG/1.1/DTD/svg11.dtd">
<svg version="1.1"
	 id="svg2" inkscape:version="0.48.4 r9939" sodipodi:docname="wheelchair.svg" xmlns:dc="http://purl.org/dc/elements/1.1/" xmlns:cc="http://creativecommons.org/ns#" xmlns:rdf="http://www.w3.org/1999/02/22-rdf-syntax-ns#" xmlns:svg="http://www.w3.org/2000/svg" xmlns:sodipodi="http://sodipodi.sourceforge.net/DTD/sodipodi-0.dtd" xmlns:inkscape="http://www.inkscape.org/namespaces/inkscape"
	 xmlns="http://www.w3.org/2000/svg" xmlns:xlink="http://www.w3.org/1999/xlink" x="0px" y="0px" width="1200px" height="1200px"
	 viewBox="0 0 1200 1200" enable-background="new 0 0 1200 1200" xml:space="preserve">
<path id="path3003" d="M476.719,0c-65.602,0.471-117.577,50.855-120.375,119.094c0.477,66.402,51.394,117.868,120.375,120.406
	c61.426-0.832,115.989-51.475,119.094-120.406C595.347,52.962,544.729,3.015,476.719,0z M510,266.375
	c-27.32,0-50.372,9.175-69.156,27.531c-15.261,15.318-32.347,49.101-26.875,76.219h-1.281L483.125,709.5
	c7.265,38.873,39.258,63.938,81.969,66.594c98.116-0.27,204.507-2.497,304.781-1.281l169.063,294.563
	c19.023,40.147,67.734,48.603,103.094,19.219c16.965-16.834,23.826-45.475,12.156-70.438L958.25,677.469
	c-14.117-29.208-41.97-45.662-76.844-47.375H663.688l-25.594-125.5h170.313c36.819,2.723,63.343-25.375,55.719-64.031
	c-5.602-18.888-25.174-36.279-48.031-37.156H616.313c-10.069-51.463-8.466-82.573-48.031-117.813
	C551.633,272.787,532.198,266.375,510,266.375z M326.281,411.625c-5.259,0.071-10.663,0.73-16.063,2.031
	c-75.444,29.356-143.317,79.801-195.938,149.844C67.911,628.887,41.987,707.595,40,794.031
	c0.772,102.443,44.761,207.568,123.594,286.875c76.408,72.773,182.465,116.699,296.469,119.094
	c83.152-0.458,166.274-25.016,242.063-73.625c68.07-46.237,121.414-112.588,153.656-195.313
	c5.977-14.515,11.106-30.758,15.375-48.688c6.25-28.186-9.57-51.084-39.688-60.188c-27.394-6.07-51.893,9.045-61.469,38.438
	c-2.562,12.807-6.408,25.172-11.531,37.125c-21.749,57.507-62.232,107.283-115.906,146c-52.185,35.487-114.684,54.813-182.5,56.344
	c-80.65-0.574-158.332-31.316-223.469-89.625c-55.969-54.264-90.982-131.912-92.844-216.438
	c0.358-60.255,19.762-119.715,56.344-173.531c35.875-49.807,86.096-88.272,147.281-113.344c25.783-8.456,39.673-35.15,30.719-64.031
	C369.445,422.364,349.07,411.317,326.281,411.625z"/>
</svg>
